icon-themes/sifr_svg/cmd/lc_bezieredge.svg

<svg viewBox="0 0 24 24" xmlns="http://www.w3.org/2000/svg"><path d="m3.3847656 7-1.3847656 1.484375 7 5.449219v4.066406h6v-4.029297l7-5.3593749-1.5625-1.6113281-6.265625 5h-4.3886719zm7.6152344 7h2v2h-2z" fill="#555753"/></svg>

<svg xmlns="http://www.w3.org/2000/svg" viewBox="0 0 24 24">
  <path
     style="fill:#555753"
     d="M 3.3847656 7 L 2 8.484375 L 9 13.933594 L 9 18 L 15 18 L 15 13.970703 L 22 8.6113281 L 20.4375 7 L 14.171875 12 L 9.7832031 12 L 3.3847656 7 z M 11 14 L 13 14 L 13 16 L 11 16 L 11 14 z "
     />
</svg>
